!!!OTL: 619. Lebe wohl, vergiss ein nicht!
!!!ODT: 1877
!!!ARE: Europa, Mitteleuropa, Deutschland, Unter - Taunus, Wuerges
!!!SCT: E0619
!!!TXL: @@DE
!!!YEM: Copyright 1995, estate of Helmut Schaffrath.
**kern	**text
*ICvox	*
*M2/4	*
*k[f#]	*
*G:	*
=1	=1
!LO:TX:a:t=Sehr mäßig.	!
!LO:TX:a:t=Aus dem Untertaunus (Würges) 1877.	!
{8dd	Al-
8b	-le
8dd	Leu-
8b	-te
=2	=2
16aL	ſol-
16b	.
16cc/J	.
16dd	-lens
8cc	wiſ-
8b}	-ſen,
=3	=3
{8dd	wa-
8b	-rum
8dd	mei-
8b	-ne
=4	=4
16a/L	Thrä-
16b	.
16ccJ	.
16dd	-nen
8cc	flie-
8b}	-ßen
=5	=5
{8ee	und
8ee	mein
(8gg	Herʒ
16ff#)	.
16ee	ſo
=6	=6
16eeL	trau-
16ddJ	.
8dd	-rig
4gg;}	iſt
=7	=7
{16a	le-
16b/	-be,
16cc	le-
16dd	-be
(16ee	wohl,
16dd)	.
8cc	ver-
=8	=8
16ccL	-giß
16bJ	.
8b	mein
4b;}	nicht!
==	==
!!!AGN: Liebes - Lied, Abschied
!!!ONB: ESAC (Essen Associative Code) Database: ERK2
!!!AMT: simple duple
!!!AIN: vox
!!!EED: Helmut Schaffrath
!!!EEV: 1.0
!!!GTL: Liebeslieder [Neuere (aus dem 18. bis 19. Jahrh.) - Liebeslust]
!!!URL-scan: https://rosdok.uni-rostock.de/mcrviewer/recordIdentifier/rosdok_ppn745177662/iview2/phys_0438.iview2?x=193.8995864193107&y=1439.476045265561&scale=0.7029437510502773&rotation=0&layout=singlePageLayout
!!!ENC: Anna Maria Matuszewska
!!!EEV: 2024/12/12
*-	*-
